X:1
T:Title
%%score { 1 | 2 }
L:1/8
Q:1/4=78
M:6/8
K:D
V:1 treble nm="Grand Piano"
V:2 bass 
V:1
 [DF][FA][FA] [FA]FD | DGB [GB] [FA]2 | [FA][FB][Ec] [Fd][Fc][FB] | [Ac][Ac][D^GB] .[CA]3 | %4
w: Wm.~Edie~Marks * * * * *||||
 [A,DF][FA][FA] [FA]FD | DGB [GB] [FA]2 | [DF][FA]A AGE | FF[K:bass][G,CE] [F,D]3 | %8
w: ||||
 [DFA][DFd][DFd] [EGd][EGc][EGc] | [CEG][CGB][CGB] [GB] [FA]2 | FAA [CA][EG][DF] | %11
w: |||
 [CE][DF][EG] [DF]3 | [FA][Fd][Fd] [EGd][EGc][EGc] | [CEG][CGB][CGB] [DGB] [DFA]2 | %14
w: |||
 [A,DF][DFA][=CDA] [B,DA][B,DG][B,DE] |[M:7/4] [DF][DF][K:bass][G,CE] [F,D]3 z2 z2 z4 |] %16
w: ||
V:2
 [D,A,][D,D][D,D] [D,D][D,A,D][F,A,] | [G,B,][K:treble][G,B,D][G,DG][K:bass] [D,D] [D,D]2 | %2
 [D,A,][D,A,][D,A,] [B,,B,][C,^A,][D,B,] | [E,E][E,E]E, .A,,3 | D,[D,D][D,D] [D,D][D,A,D][F,A,] | %5
 [G,B,][K:treble][G,B,D][G,DG][K:bass] [D,D] [D,D]2 | [D,A,][D,D][F,=CD] [G,B,D][G,B,D][G,B,D] | %7
 [A,D][A,D]A,, D,3 | D,D,D, A,A,A, | A,,A,,A,, [D,D] [D,D]2 | %10
 [D,A,D][D,F,D][D,F,D] [A,,E,][A,,A,][A,,A,] | [A,,A,][A,,A,][A,,A,] [D,A,]3 | %12
 [D,D][D,D][D,D] A,A,A, | A,,A,,A,, D, D,2 | D,D,F, G,G,G, |[M:7/4] A,A,A,, D,3 z2 z2 z4 |] %16

